X:14214
T:Restoration Spring Garden Hornpipe
B:Walsh
M:3/2
L:1/8
N:
K:Gm
ga b2 a2 a^f g2 d2| cde2 d2 cB c2 A2| Bc d2 c2 BA B2 AB| G2 ed cBAG ^F4| \
ga b2 a2 g^f g2 d2| cd e2 d2 cBc2 A2| Bc d2 c2 BA B2 AG| D2 G2 ^FGAF G4::\
de f2 f2 ed e2 c2| CD E2 D2 C=B, C4| cd e2 e2 dc d2 c2| B,C D2 C2 B,A, B,4|\
b2 ag a2 f^f g2 d2 | e2 dc d2 c=B c4| bagf edcB AGFE| DCB,A, B,G A,^F G4||


